static/img/kroki/97fac08daae0889d655861be7cdac61c.svg

<?xml version="1.0" encoding="us-ascii" standalone="no"?><svg xmlns="http://www.w3.org/2000/svg" xmlns:xlink="http://www.w3.org/1999/xlink" contentStyleType="text/css" height="954px" preserveAspectRatio="none" style="width:363px;height:954px;" version="1.1" viewBox="0 0 363 954" width="363px" zoomAndPan="magnify"><defs/><g><!--class azure_cosmos_db_sql_role_definition--><g id="elem_azure_cosmos_db_sql_role_definition"><rect codeLine="23" fill="#3D176E" height="126.6797" id="azure_cosmos_db_sql_role_definition" rx="2.5" ry="2.5" style="stroke:#000D19;stroke-width:0.5;" width="349" x="7" y="660.14"/><ellipse cx="22" cy="680.0345" fill="#ADD1B2" rx="11" ry="11" style="stroke:#181818;stroke-width:1.0;"/><path d="M24.9688,685.6752 Q24.3906,685.972 23.75,686.1127 Q23.1094,686.2689 22.4063,686.2689 Q19.9063,686.2689 18.5781,684.6283 Q17.2656,682.972 17.2656,679.847 Q17.2656,676.722 18.5781,675.0658 Q19.9063,673.4095 22.4063,673.4095 Q23.1094,673.4095 23.75,673.5658 Q24.4063,673.722 24.9688,674.0189 L24.9688,676.7377 Q24.3438,676.1595 23.75,675.8939 Q23.1563,675.6127 22.5313,675.6127 Q21.1875,675.6127 20.5,676.6908 Q19.8125,677.7533 19.8125,679.847 Q19.8125,681.9408 20.5,683.0189 Q21.1875,684.0814 22.5313,684.0814 Q23.1563,684.0814 23.75,683.8158 Q24.3438,683.5345 24.9688,682.9564 L24.9688,685.6752 Z " fill="#000000"/><text fill="#D9B8FF" font-family="Helvetica" font-size="17" lengthAdjust="spacing" textLength="307" x="41" y="685.9198">azure_cosmos_db_sql_role_definition</text><line style="stroke:#000D19;stroke-width:0.5;" x1="8" x2="355" y1="699.9291" y2="699.9291"/><text fill="#D9B8FF" font-family="sans-serif" font-size="14" font-weight="bold" lengthAdjust="spacing" textLength="148" x="18" y="721.9242">assignable_scopes</text><text fill="#D9B8FF" font-family="sans-serif" font-size="14" lengthAdjust="spacing" textLength="58" x="166" y="721.9242">: string[]</text><text fill="#D9B8FF" font-family="sans-serif" font-size="14" font-weight="bold" lengthAdjust="spacing" textLength="81" x="18" y="748.2211">role_name</text><text fill="#D9B8FF" font-family="sans-serif" font-size="14" lengthAdjust="spacing" textLength="48" x="99" y="748.2211">: string</text><text fill="#D9B8FF" font-family="sans-serif" font-size="14" font-weight="bold" lengthAdjust="spacing" textLength="134" x="18" y="774.5179">role_permissions</text><text fill="#D9B8FF" font-family="sans-serif" font-size="14" lengthAdjust="spacing" textLength="174" x="152" y="774.5179">: azure_role_permission[]</text></g><!--class azure_role_permission--><g id="elem_azure_role_permission"><rect codeLine="28" fill="#3D176E" height="100.3828" id="azure_role_permission" rx="2.5" ry="2.5" style="stroke:#000D19;stroke-width:0.5;" width="229" x="67" y="846.82"/><ellipse cx="82" cy="866.7145" fill="#ADD1B2" rx="11" ry="11" style="stroke:#181818;stroke-width:1.0;"/><path d="M84.9688,872.3552 Q84.3906,872.652 83.75,872.7927 Q83.1094,872.9489 82.4063,872.9489 Q79.9063,872.9489 78.5781,871.3083 Q77.2656,869.652 77.2656,866.527 Q77.2656,863.402 78.5781,861.7458 Q79.9063,860.0895 82.4063,860.0895 Q83.1094,860.0895 83.75,860.2458 Q84.4063,860.402 84.9688,860.6989 L84.9688,863.4177 Q84.3438,862.8395 83.75,862.5739 Q83.1563,862.2927 82.5313,862.2927 Q81.1875,862.2927 80.5,863.3708 Q79.8125,864.4333 79.8125,866.527 Q79.8125,868.6208 80.5,869.6989 Q81.1875,870.7614 82.5313,870.7614 Q83.1563,870.7614 83.75,870.4958 Q84.3438,870.2145 84.9688,869.6364 L84.9688,872.3552 Z " fill="#000000"/><text fill="#D9B8FF" font-family="Helvetica" font-size="17" lengthAdjust="spacing" textLength="187" x="101" y="872.5998">azure_role_permission</text><line style="stroke:#000D19;stroke-width:0.5;" x1="68" x2="295" y1="886.6091" y2="886.6091"/><text fill="#D9B8FF" font-family="sans-serif" font-size="14" font-weight="bold" lengthAdjust="spacing" textLength="98" x="78" y="908.6042">data_actions</text><text fill="#D9B8FF" font-family="sans-serif" font-size="14" lengthAdjust="spacing" textLength="58" x="176" y="908.6042">: string[]</text><text fill="#D9B8FF" font-family="sans-serif" font-size="14" font-weight="bold" lengthAdjust="spacing" textLength="131" x="78" y="934.9011">not_data_actions</text><text fill="#D9B8FF" font-family="sans-serif" font-size="14" lengthAdjust="spacing" textLength="58" x="209" y="934.9011">: string[]</text></g><!--class microsoft_resource--><g id="elem_microsoft_resource"><rect codeLine="32" fill="#3D176E" height="100.3828" id="microsoft_resource" rx="2.5" ry="2.5" style="stroke:#000D19;stroke-width:0.5;" width="214" x="74.5" y="438.75"/><ellipse cx="95.8" cy="458.6445" fill="#ADD1B2" rx="11" ry="11" style="stroke:#181818;stroke-width:1.0;"/><path d="M98.7688,464.2852 Q98.1906,464.582 97.55,464.7227 Q96.9094,464.8789 96.2063,464.8789 Q93.7063,464.8789 92.3781,463.2383 Q91.0656,461.582 91.0656,458.457 Q91.0656,455.332 92.3781,453.6758 Q93.7063,452.0195 96.2063,452.0195 Q96.9094,452.0195 97.55,452.1758 Q98.2063,452.332 98.7688,452.6289 L98.7688,455.3477 Q98.1438,454.7695 97.55,454.5039 Q96.9563,454.2227 96.3313,454.2227 Q94.9875,454.2227 94.3,455.3008 Q93.6125,456.3633 93.6125,458.457 Q93.6125,460.5508 94.3,461.6289 Q94.9875,462.6914 96.3313,462.6914 Q96.9563,462.6914 97.55,462.4258 Q98.1438,462.1445 98.7688,461.5664 L98.7688,464.2852 Z " fill="#000000"/><text fill="#D9B8FF" font-family="Helvetica" font-size="17" lengthAdjust="spacing" textLength="158" x="116.2" y="464.5298">microsoft_resource</text><line style="stroke:#000D19;stroke-width:0.5;" x1="75.5" x2="287.5" y1="478.5391" y2="478.5391"/><text fill="#D9B8FF" font-family="sans-serif" font-size="14" font-weight="bold" lengthAdjust="spacing" textLength="35" x="85.5" y="500.5342">etag</text><text fill="#D9B8FF" font-family="sans-serif" font-size="14" lengthAdjust="spacing" textLength="48" x="120.5" y="500.5342">: string</text><text fill="#D9B8FF" font-family="sans-serif" font-size="14" font-weight="bold" lengthAdjust="spacing" textLength="144" x="85.5" y="526.8311">provisioning_state</text><text fill="#D9B8FF" font-family="sans-serif" font-size="14" lengthAdjust="spacing" textLength="48" x="229.5" y="526.8311">: string</text></g><!--class resource--><g id="elem_resource"><rect codeLine="36" fill="#3D176E" height="310.7578" id="resource" rx="2.5" ry="2.5" style="stroke:#000D19;stroke-width:0.5;" width="227" x="68" y="7"/><ellipse cx="136.75" cy="26.8945" fill="#ADD1B2" rx="11" ry="11" style="stroke:#181818;stroke-width:1.0;"/><path d="M139.7188,32.5352 Q139.1406,32.832 138.5,32.9727 Q137.8594,33.1289 137.1563,33.1289 Q134.6563,33.1289 133.3281,31.4883 Q132.0156,29.832 132.0156,26.707 Q132.0156,23.582 133.3281,21.9258 Q134.6563,20.2695 137.1563,20.2695 Q137.8594,20.2695 138.5,20.4258 Q139.1563,20.582 139.7188,20.8789 L139.7188,23.5977 Q139.0938,23.0195 138.5,22.7539 Q137.9063,22.4727 137.2813,22.4727 Q135.9375,22.4727 135.25,23.5508 Q134.5625,24.6133 134.5625,26.707 Q134.5625,28.8008 135.25,29.8789 Q135.9375,30.9414 137.2813,30.9414 Q137.9063,30.9414 138.5,30.6758 Q139.0938,30.3945 139.7188,29.8164 L139.7188,32.5352 Z " fill="#000000"/><text fill="#D9B8FF" font-family="Helvetica" font-size="17" lengthAdjust="spacing" textLength="71" x="162.25" y="32.7798">resource</text><line style="stroke:#000D19;stroke-width:0.5;" x1="69" x2="294" y1="46.7891" y2="46.7891"/><text fill="#D9B8FF" font-family="sans-serif" font-size="14" font-weight="bold" lengthAdjust="spacing" textLength="29" x="79" y="68.7842">age</text><text fill="#D9B8FF" font-family="sans-serif" font-size="14" lengthAdjust="spacing" textLength="66" x="108" y="68.7842">: duration</text><text fill="#D9B8FF" font-family="sans-serif" font-size="14" font-weight="bold" lengthAdjust="spacing" textLength="43" x="79" y="95.0811">atime</text><text fill="#D9B8FF" font-family="sans-serif" font-size="14" lengthAdjust="spacing" textLength="70" x="122" y="95.0811">: datetime</text><text fill="#D9B8FF" font-family="sans-serif" font-size="14" font-weight="bold" lengthAdjust="spacing" textLength="43" x="79" y="121.3779">ctime</text><text fill="#D9B8FF" font-family="sans-serif" font-size="14" lengthAdjust="spacing" textLength="70" x="122" y="121.3779">: datetime</text><text fill="#D9B8FF" font-family="sans-serif" font-size="14" font-weight="bold" lengthAdjust="spacing" textLength="14" x="79" y="147.6748">id</text><text fill="#D9B8FF" font-family="sans-serif" font-size="14" lengthAdjust="spacing" textLength="48" x="93" y="147.6748">: string</text><text fill="#D9B8FF" font-family="sans-serif" font-size="14" font-weight="bold" lengthAdjust="spacing" textLength="33" x="79" y="173.9717">kind</text><text fill="#D9B8FF" font-family="sans-serif" font-size="14" lengthAdjust="spacing" textLength="48" x="112" y="173.9717">: string</text><text fill="#D9B8FF" font-family="sans-serif" font-size="14" font-weight="bold" lengthAdjust="spacing" textLength="90" x="79" y="200.2686">last_access</text><text fill="#D9B8FF" font-family="sans-serif" font-size="14" lengthAdjust="spacing" textLength="66" x="169" y="200.2686">: duration</text><text fill="#D9B8FF" font-family="sans-serif" font-size="14" font-weight="bold" lengthAdjust="spacing" textLength="90" x="79" y="226.5654">last_update</text><text fill="#D9B8FF" font-family="sans-serif" font-size="14" lengthAdjust="spacing" textLength="66" x="169" y="226.5654">: duration</text><text fill="#D9B8FF" font-family="sans-serif" font-size="14" font-weight="bold" lengthAdjust="spacing" textLength="48" x="79" y="252.8623">mtime</text><text fill="#D9B8FF" font-family="sans-serif" font-size="14" lengthAdjust="spacing" textLength="70" x="127" y="252.8623">: datetime</text><text fill="#D9B8FF" font-family="sans-serif" font-size="14" font-weight="bold" lengthAdjust="spacing" textLength="43" x="79" y="279.1592">name</text><text fill="#D9B8FF" font-family="sans-serif" font-size="14" lengthAdjust="spacing" textLength="48" x="122" y="279.1592">: string</text><text fill="#D9B8FF" font-family="sans-serif" font-size="14" font-weight="bold" lengthAdjust="spacing" textLength="34" x="79" y="305.4561">tags</text><text fill="#D9B8FF" font-family="sans-serif" font-size="14" lengthAdjust="spacing" textLength="171" x="113" y="305.4561">: dictionary[string, string]</text></g><!--link azure_cosmos_db_sql_role_definition to azure_role_permission--><g id="link_azure_cosmos_db_sql_role_definition_azure_role_permission"><path codeLine="48" d="M181.5,786.89 C181.5,806.53 181.5,821.93 181.5,840.54 " fill="none" id="azure_cosmos_db_sql_role_definition-to-azure_role_permission" style="stroke:#FFAF37;stroke-width:2.0;"/><polygon fill="#FFAF37" points="181.5,846.54,185.5,837.54,181.5,841.54,177.5,837.54,181.5,846.54" style="stroke:#FFAF37;stroke-width:2.0;"/></g><!--reverse link microsoft_resource to azure_cosmos_db_sql_role_definition--><g id="link_microsoft_resource_azure_cosmos_db_sql_role_definition"><path codeLine="49" d="M181.5,557.54 C181.5,592.62 181.5,621.93 181.5,659.65 " fill="none" id="microsoft_resource-backto-azure_cosmos_db_sql_role_definition" style="stroke:#FFAF37;stroke-width:2.0;"/><polygon fill="none" points="181.5,539.54,175.5,557.54,187.5,557.54,181.5,539.54" style="stroke:#FFAF37;stroke-width:2.0;"/></g><!--reverse link resource to microsoft_resource--><g id="link_resource_microsoft_resource"><path codeLine="50" d="M181.5,336.06 C181.5,379.65 181.5,405.98 181.5,438.42 " fill="none" id="resource-backto-microsoft_resource" style="stroke:#FFAF37;stroke-width:2.0;"/><polygon fill="none" points="181.5,318.06,175.5,336.06,187.5,336.06,181.5,318.06" style="stroke:#FFAF37;stroke-width:2.0;"/></g><!--SRC=[ZLDTRzD047pthx3KjuX82HMaGGYfH4BmKY7AMuMizTtQESM-DNlhLYdmtpdRCPm_qlRDdfcRcTspzqPZZ6KbnxZ4CaLsaJiOMm536LypqyEE2kBu8iiWkzoCoKzavLd13PGOVyRY7iKe62k-xuqwM7GkVXrG7q4TSgRQwivU6App55e9LBi2dBiMOPFMWa4PlKslicoi79jUNEhrvYrEPCGQ-IHPhLPwlHrBderwSkv_YblpYF4wNDeD2KvgJY9QrPCj6qLGSZ9epv_j-1MqDZQFtmJOjwuJM-G1Vhi7JG-DEeF2XJ5Ea97aME5kCXLkhtIscHL_EIUELBEw61vhnaIHAyabEatSpo9XAZ3Hc1bhn92DVqMBXTUQt4Bg6QUeGhTOlFCnxAlU_V1yUyRw5Vp7UxH2Beq_JhOzr2ME6E_nPz1enBSTD0WaeAHt2k8jINAMxfrBevWSPP8mEgfPOMkB0lcWTSLqRvfK_veu0Gc7wiq65f2t4bqpDF4D8gRRXM-5pRF7r0ncz23Qt-0Gy5dYXrB-hnubj4nTwLEzW2bdSYPNuuVk74sxCU3ZNSUzEccQlRtawrWkFypVMJIpx_U_bylbIpwwQ7HawXNz1G00]--></g></svg>

<svg xmlns="http://www.w3.org/2000/svg" width="363" height="954" viewBox="0 0 363 954"><rect width="349" height="126.68" x="7" y="660.14" fill="#3D176E" rx="2.5" ry="2.5" style="stroke:#000d19;stroke-width:.5"/><circle cx="22" cy="680.034" r="11" fill="#ADD1B2" style="stroke:#181818;stroke-width:1"/><path d="M24.969 685.675q-.578.297-1.219.438-.64.156-1.344.156-2.5 0-3.828-1.64-1.312-1.657-1.312-4.782t1.312-4.781q1.328-1.657 3.828-1.657.703 0 1.344.157.656.156 1.219.453v2.719q-.625-.579-1.219-.844-.594-.281-1.219-.281-1.343 0-2.031 1.078-.687 1.062-.687 3.156t.687 3.172q.688 1.062 2.031 1.062.625 0 1.219-.265.594-.282 1.219-.86z"/><text x="41" y="685.92" fill="#D9B8FF" font-family="Helvetica" font-size="17" textLength="307">azure_cosmos_db_sql_role_definition</text><path d="M8 699.929h347" style="stroke:#000d19;stroke-width:.5"/><text x="18" y="721.924" fill="#D9B8FF" font-family="sans-serif" font-size="14" font-weight="bold" textLength="148">assignable_scopes</text><text x="166" y="721.924" fill="#D9B8FF" font-family="sans-serif" font-size="14" textLength="58">: string[]</text><text x="18" y="748.221" fill="#D9B8FF" font-family="sans-serif" font-size="14" font-weight="bold" textLength="81">role_name</text><text x="99" y="748.221" fill="#D9B8FF" font-family="sans-serif" font-size="14" textLength="48">: string</text><text x="18" y="774.518" fill="#D9B8FF" font-family="sans-serif" font-size="14" font-weight="bold" textLength="134">role_permissions</text><text x="152" y="774.518" fill="#D9B8FF" font-family="sans-serif" font-size="14" textLength="174">: azure_role_permission[]</text><rect width="229" height="100.383" x="67" y="846.82" fill="#3D176E" rx="2.5" ry="2.5" style="stroke:#000d19;stroke-width:.5"/><circle cx="82" cy="866.715" r="11" fill="#ADD1B2" style="stroke:#181818;stroke-width:1"/><path d="M84.969 872.355q-.578.297-1.219.438-.64.156-1.344.156-2.5 0-3.828-1.64-1.312-1.657-1.312-4.782t1.312-4.781q1.328-1.656 3.828-1.656.703 0 1.344.156.656.156 1.219.453v2.719q-.625-.578-1.219-.844-.594-.281-1.219-.281-1.344 0-2.031 1.078-.687 1.062-.687 3.156t.687 3.172q.688 1.062 2.031 1.062.625 0 1.219-.265.594-.281 1.219-.86z"/><text x="101" y="872.6" fill="#D9B8FF" font-family="Helvetica" font-size="17" textLength="187">azure_role_permission</text><path d="M68 886.609h227" style="stroke:#000d19;stroke-width:.5"/><text x="78" y="908.604" fill="#D9B8FF" font-family="sans-serif" font-size="14" font-weight="bold" textLength="98">data_actions</text><text x="176" y="908.604" fill="#D9B8FF" font-family="sans-serif" font-size="14" textLength="58">: string[]</text><text x="78" y="934.901" fill="#D9B8FF" font-family="sans-serif" font-size="14" font-weight="bold" textLength="131">not_data_actions</text><text x="209" y="934.901" fill="#D9B8FF" font-family="sans-serif" font-size="14" textLength="58">: string[]</text><rect width="214" height="100.383" x="74.5" y="438.75" fill="#3D176E" rx="2.5" ry="2.5" style="stroke:#000d19;stroke-width:.5"/><circle cx="95.8" cy="458.644" r="11" fill="#ADD1B2" style="stroke:#181818;stroke-width:1"/><path d="M98.769 464.285q-.578.297-1.219.438-.64.156-1.344.156-2.5 0-3.828-1.64-1.312-1.657-1.312-4.782t1.312-4.781q1.328-1.656 3.828-1.656.703 0 1.344.156.656.156 1.219.453v2.719q-.625-.579-1.219-.844-.594-.281-1.219-.281-1.344 0-2.031 1.078-.687 1.062-.687 3.156t.687 3.172q.688 1.062 2.031 1.062.625 0 1.219-.265.594-.281 1.219-.86z"/><text x="116.2" y="464.53" fill="#D9B8FF" font-family="Helvetica" font-size="17" textLength="158">microsoft_resource</text><path d="M75.5 478.539h212" style="stroke:#000d19;stroke-width:.5"/><text x="85.5" y="500.534" fill="#D9B8FF" font-family="sans-serif" font-size="14" font-weight="bold" textLength="35">etag</text><text x="120.5" y="500.534" fill="#D9B8FF" font-family="sans-serif" font-size="14" textLength="48">: string</text><text x="85.5" y="526.831" fill="#D9B8FF" font-family="sans-serif" font-size="14" font-weight="bold" textLength="144">provisioning_state</text><text x="229.5" y="526.831" fill="#D9B8FF" font-family="sans-serif" font-size="14" textLength="48">: string</text><rect width="227" height="310.758" x="68" y="7" fill="#3D176E" rx="2.5" ry="2.5" style="stroke:#000d19;stroke-width:.5"/><circle cx="136.75" cy="26.895" r="11" fill="#ADD1B2" style="stroke:#181818;stroke-width:1"/><path d="M139.719 32.535q-.578.297-1.219.438-.64.156-1.344.156-2.5 0-3.828-1.64-1.312-1.657-1.312-4.782t1.312-4.781q1.328-1.656 3.828-1.656.703 0 1.344.156.656.156 1.219.453v2.719q-.625-.578-1.219-.844-.594-.281-1.219-.281-1.344 0-2.031 1.078-.687 1.062-.687 3.156t.687 3.172q.688 1.062 2.031 1.062.625 0 1.219-.265.594-.281 1.219-.86z"/><text x="162.25" y="32.78" fill="#D9B8FF" font-family="Helvetica" font-size="17" textLength="71">resource</text><path d="M69 46.789h225" style="stroke:#000d19;stroke-width:.5"/><text x="79" y="68.784" fill="#D9B8FF" font-family="sans-serif" font-size="14" font-weight="bold" textLength="29">age</text><text x="108" y="68.784" fill="#D9B8FF" font-family="sans-serif" font-size="14" textLength="66">: duration</text><text x="79" y="95.081" fill="#D9B8FF" font-family="sans-serif" font-size="14" font-weight="bold" textLength="43">atime</text><text x="122" y="95.081" fill="#D9B8FF" font-family="sans-serif" font-size="14" textLength="70">: datetime</text><text x="79" y="121.378" fill="#D9B8FF" font-family="sans-serif" font-size="14" font-weight="bold" textLength="43">ctime</text><text x="122" y="121.378" fill="#D9B8FF" font-family="sans-serif" font-size="14" textLength="70">: datetime</text><text x="79" y="147.675" fill="#D9B8FF" font-family="sans-serif" font-size="14" font-weight="bold" textLength="14">id</text><text x="93" y="147.675" fill="#D9B8FF" font-family="sans-serif" font-size="14" textLength="48">: string</text><text x="79" y="173.972" fill="#D9B8FF" font-family="sans-serif" font-size="14" font-weight="bold" textLength="33">kind</text><text x="112" y="173.972" fill="#D9B8FF" font-family="sans-serif" font-size="14" textLength="48">: string</text><text x="79" y="200.269" fill="#D9B8FF" font-family="sans-serif" font-size="14" font-weight="bold" textLength="90">last_access</text><text x="169" y="200.269" fill="#D9B8FF" font-family="sans-serif" font-size="14" textLength="66">: duration</text><text x="79" y="226.565" fill="#D9B8FF" font-family="sans-serif" font-size="14" font-weight="bold" textLength="90">last_update</text><text x="169" y="226.565" fill="#D9B8FF" font-family="sans-serif" font-size="14" textLength="66">: duration</text><text x="79" y="252.862" fill="#D9B8FF" font-family="sans-serif" font-size="14" font-weight="bold" textLength="48">mtime</text><text x="127" y="252.862" fill="#D9B8FF" font-family="sans-serif" font-size="14" textLength="70">: datetime</text><text x="79" y="279.159" fill="#D9B8FF" font-family="sans-serif" font-size="14" font-weight="bold" textLength="43">name</text><text x="122" y="279.159" fill="#D9B8FF" font-family="sans-serif" font-size="14" textLength="48">: string</text><text x="79" y="305.456" fill="#D9B8FF" font-family="sans-serif" font-size="14" font-weight="bold" textLength="34">tags</text><text x="113" y="305.456" fill="#D9B8FF" font-family="sans-serif" font-size="14" textLength="171">: dictionary[string, string]</text><path fill="none" d="M181.5 786.89v53.65" style="stroke:#ffaf37;stroke-width:2"/><path fill="#FFAF37" d="m181.5 846.54 4-9-4 4-4-4z" style="stroke:#ffaf37;stroke-width:2"/><path fill="none" d="M181.5 557.54v102.11m0-120.11-6 18h12zm0-203.48v102.36m0-120.36-6 18h12z" style="stroke:#ffaf37;stroke-width:2"/></svg>
